geofa_plugin/geofa_symboler/Friluftsliv, punkt/FERIECENTER.svg

<svg xmlns="http://www.w3.org/2000/svg" width="5.5mm" height="5.5mm" viewBox="0 0 15.591 15.591">
  <rect width="15.591" height="15.591" rx="7.795" fill="#021e3a"/>
  <g>
    <path d="M12.961,4.962,8.054,2.021a.434.434,0,0,0-.448,0L2.7,4.962a.437.437,0,0,0,.449.749L7.83,2.905l4.682,2.806a.437.437,0,1,0,.449-.749Z" fill="#fff"/>
    <path d="M12,11.509h-.47a.427.427,0,0,0,.025-.124v-1.9a.437.437,0,0,0-.874,0V10.2H4.846V8.558a.437.437,0,1,0-.873,0v2.831a.441.441,0,0,0,.024.12H3.575a.328.328,0,0,0,0,.656H12a.328.328,0,0,0,0-.656Zm-7.158-.12v-.314h5.839v.31a.4.4,0,0,0,.026.124H4.822A.406.406,0,0,0,4.846,11.389Z" fill="#fff"/>
    <path d="M6.049,9.214a.627.627,0,1,0-.627-.627A.627.627,0,0,0,6.049,9.214Z" fill="#fff"/>
    <path d="M5.168,9.66a.328.328,0,0,0,.328.327H7.015l.01,0h3.039a.192.192,0,0,0,.192-.192A1.192,1.192,0,0,0,9.064,8.6H6.994a.192.192,0,0,0-.192.192v.539H5.5A.328.328,0,0,0,5.168,9.66Z" fill="#fff"/>
  </g>
</svg>

<?xml version="1.0" encoding="UTF-8"?>
<svg xmlns="http://www.w3.org/2000/svg" viewBox="0 0 15.59 15.59">
  <defs>
    <style>
      .cls-1 {
        fill: #021e3a;
      }

      .cls-1, .cls-2 {
        stroke-width: 0px;
      }

      .cls-2 {
        fill: #fff;
      }
    </style>
  </defs>
  <g id="Cirkel">
    <rect class="cls-1" x="0" y="0" width="15.59" height="15.59" rx="7.8" ry="7.8"/>
  </g>
  <g id="ICONS">
    <g>
      <path class="cls-2" d="M12.96,4.96l-4.91-2.94c-.14-.08-.31-.08-.45,0l-4.91,2.94c-.21.12-.27.39-.15.6.12.21.39.27.6.15l4.68-2.81,4.68,2.81c.07.04.15.06.22.06.15,0,.29-.08.37-.21.12-.21.06-.47-.15-.6Z"/>
      <path class="cls-2" d="M12,11.51h-.47s.03-.08.03-.12v-1.9c0-.24-.2-.44-.44-.44s-.44.2-.44.44v.71h-5.84v-1.64c0-.24-.2-.44-.44-.44s-.44.2-.44.44v2.83s.01.08.02.12h-.42c-.18,0-.33.15-.33.33s.15.33.33.33h8.43c.18,0,.33-.15.33-.33s-.15-.33-.33-.33ZM4.85,11.39v-.31h5.84v.31s.01.08.03.12h-5.89s.02-.08.02-.12Z"/>
      <path class="cls-2" d="M6.05,9.21c.35,0,.63-.28.63-.63s-.28-.63-.63-.63-.63.28-.63.63.28.63.63.63Z"/>
      <path class="cls-2" d="M5.17,9.66c0,.18.15.33.33.33h1.52s0,0,0,0h3.04c.11,0,.19-.09.19-.19,0-.66-.53-1.19-1.19-1.19h-2.07c-.11,0-.19.09-.19.19v.54h-1.31c-.18,0-.33.15-.33.33Z"/>
    </g>
  </g>
</svg>
